icons/1_Primary/Wealthfront.svg

<svg width="1024" height="1024" fill="none" xmlns="http://www.w3.org/2000/svg"><g clip-path="url(#a)"><path d="M512 1024c282.77 0 512-229.23 512-512S794.77 0 512 0 0 229.23 0 512s229.23 512 512 512Z" fill="#8C72BD"/><path d="M767.9 741.7v-1.5c-.4-.6-1.1-1.4-2.2-2.4C653.9 646.7 668 456 699.7 279c1.3-7.1 2.1-11.9-3.5-12.5-36.1-4.2-156.5 15.4-191 24.8-9 2.5-9.8 5-9.9 10.7-9.5 354.2 208.4 428.4 267.6 440 1.2.3 4.2.6 5-.3ZM453.4 401.5c-44.3 8.6-85.4 25.5-120.9 40.6-3.1.9-8.1 6.2-6.8 12.8 14 71.6 82.3 273.4 343.6 289.1 6 .3 12.1-.8 7.3-3.8-35.2-27.1-160.5-54.9-211.7-328.6-.6-2.7-.5-13.4-11.5-10.1Zm-125.3 168c-15.6 9.4-55.7 35.7-70.1 49.2-2.9 2.7-2.3 4.6-1 9.2 11.6 42.4 80.2 116.6 250.5 110.9 8-.3 8.1-2.7 3.9-5.8-2.7-2-56.6-19.3-105.8-64.6-24.6-22.7-49.7-57.1-66.5-89.8-4.2-8.9-6.3-11.9-11-9.1Z" fill="#fff"/></g><defs><clipPath id="a"><path fill="#fff" d="M0 0h1024v1024H0z"/></clipPath></defs></svg>

<svg width="1024" height="1024" viewBox="0 0 1024 1024" fill="none" xmlns="http://www.w3.org/2000/svg">
<g clip-path="url(#clip0_2_3894)">
<path d="M512 1024C794.77 1024 1024 794.77 1024 512C1024 229.23 794.77 0 512 0C229.23 0 0 229.23 0 512C0 794.77 229.23 1024 512 1024Z" fill="#8C72BD"/>
<path d="M767.9 741.7V740.2C767.5 739.6 766.8 738.8 765.7 737.8C653.9 646.7 668 456 699.7 279C701 271.9 701.8 267.1 696.2 266.5C660.1 262.3 539.7 281.9 505.2 291.3C496.2 293.8 495.4 296.3 495.3 302C485.8 656.2 703.7 730.4 762.9 742C764.1 742.3 767.1 742.6 767.9 741.7ZM453.4 401.5C409.1 410.1 368 427 332.5 442.1C329.4 443 324.4 448.3 325.7 454.9C339.7 526.5 408 728.3 669.3 744C675.3 744.3 681.4 743.2 676.6 740.2C641.4 713.1 516.1 685.3 464.9 411.6C464.3 408.9 464.4 398.2 453.4 401.5ZM328.1 569.5C312.5 578.9 272.4 605.2 258 618.7C255.1 621.4 255.7 623.3 257 627.9C268.6 670.3 337.2 744.5 507.5 738.8C515.5 738.5 515.6 736.1 511.4 733C508.7 731 454.8 713.7 405.6 668.4C381 645.7 355.9 611.3 339.1 578.6C334.9 569.7 332.8 566.7 328.1 569.5Z" fill="white"/>
</g>
<defs>
<clipPath id="clip0_2_3894">
<rect width="1024" height="1024" fill="white"/>
</clipPath>
</defs>
</svg>
